!!!COM: Scriabin, Alexander
!!!OTL@@FR: Poème-nocturne
!!!OTL@@EN: Poem-Nocturne
!!!OPS: 61
!!!ODT: 1911–1912
!!!AGN: Poem
**kern	**kern	**dynam
*staff2	*staff1	*staff1/2
*Ipiano	*Ipiano	*
*clefF4	*clefG2	*
*k[]	*k[]	*
*X:	*X:	*
*M9/8	*M9/8	*
4r	4g	.
4r	4a-X	.
8r	8b	.
=1	=1	=1
16r	[4.b-X	.
16fLL	.	.
16c-X	.	.
16D-XJ	.	.
[8GJ	.	.
2.G]	8b-L]	.
.	8cc-X	.
.	8ffJ	.
.	[4.e--	.
=2	=2	=2
4r	4.e--_	.
8r	.	.
16fLL	8.e--L]	.
16c-X	.	.
16D-XJJ	.	.
16r	16e-XL	.
8r	16b-X	.
.	16cc-XJJ	.
16c-LL	4ff	.
16F	.	.
16GGJJ	.	.
16r	.	.
8r	[8e--	.
=3	=3	=3
16fLL	8.e--L]	.
16c-X	.	.
16D-XJJ	.	.
16r	16e-XL	.
8r	16b-X	.
.	16cc-XJJ	.
16c-LL	4ff	.
16F	.	.
16GGJJ	.	.
16r	.	.
8r	[8e--	.
16FLL	8e--L]	.
16GG	.	.
16DD-XJJ	8cc-	.
16r	.	.
8r	8b-J	.
=4	=4	=4
[8qAAA/ [8qDD#X	.	.
*	*^	*
4.AAA] 4.DD#] 4.BB-X 4.En	4.B-X 4.f#X 4.b-X [4.cc#X	4rc	.
.	.	8rc	.
2.c#X	8cc#]	8B-L	.
.	4a	8a	.
.	.	8f#J	.
.	4b-	8b-L	.
.	.	8f#	.
.	8cc#	8cc#J	.
*	*v	*v	*
=5	=5	=5
16r	[4.ccn	.
16gLL	.	.
16d-X	.	.
16E-XJ	.	.
[8AJ	.	.
2.A]	8ccL]	.
.	8dd-X	.
.	8ggJ	.
.	[4.f-X	.
=6	=6	=6
4r	4.f-_	.
8r	.	.
16gLL	8.f-L]	.
16d-X	.	.
16E-XJJ	.	.
16r	16fnL	.
8r	16cc	.
.	16dd-XJJ	.
16d-LL	4gg	.
16G	.	.
16AAJJ	.	.
16r	.	.
8r	[8f-X	.
=7	=7	=7
16gLL	8.f-L]	.
16d-X	.	.
16E-XJJ	.	.
16r	16fnL	.
8r	16cc	.
.	16dd-XJJ	.
16d-LL	4gg	.
16G	.	.
16AAJJ	.	.
16r	.	.
8r	[8f-X	.
16GLL	8f-L]	.
16AA	.	.
16EE-XJJ	8dd-	.
16r	.	.
8r	8ccJ	.
=8	=8	=8
[8qBBB/ [8qEE#X	.	.
4BBB] 4EE#] 4C 4F#X	8.cL 8.g#X 8.cc 8.dd#X	.
.	16gnL	.
8r	16ddn	.
.	16ee-XJJ	.
16e-XLL	4aa	.
16A	.	.
16BBJJ	.	.
16r	.	.
8r	[8g-X	.
16ALL	8g-L]	.
16BB	.	.
16FFnJJ	8ee-	.
16r	.	.
8r	8ddJ	.
=9	=9	=9
*M3/4	*M3/4	*
[8qBBB/ [8qEE#X	.	.
*	*^	*
4BBB] 4EE#] 4C 4F#X	4c 4g#X 4cc 4dd#X	4rc	.
2D#X 2d#X	12raa	12cL	.
.	6b	12b	.
.	.	12g#J	.
.	6cc	12ccL	.
.	.	12g#	.
.	12ddn	12ddJ	.
=10	=10	=10	=10
[8qBBB/ [8qEE#X	.	.	.
4BBB] 4EE#] 4C 4F#X	4c 4g#X 4cc 4dd#X	4rc	.
2D#X 2d#X	12raa	12cL	.
.	6b	12b	.
.	.	12g#J	.
.	6cc	12ccL	.
.	.	12g#	.
.	12ee	12eeJ	.
=11	=11	=11	=11
[8qAAA-X/ [8qDDn	.	.	.
4AAA-] 4DD] 4BB-- 4E-X	4f 4b-- 4cc 4ff	4rc	.
2C 2c	12raa	12fL	.
.	6cc-X	12cc-	.
.	.	12a-XJ	.
.	6ccn	12ccL	.
.	.	12b--	.
.	12een	12eeJ	.
=12	=12	=12	=12
[8qAAA-X/ [8qDD	.	.	.
4AAA-] 4DD] 4BB-- 4E-X	4f 4b-- 4cc 4ff	4rc	.
2C 2c	12raa	12fL	.
.	6cc-X	12cc-	.
.	.	12a-XJ	.
.	6ccn	12ccL	.
.	.	12b--	.
.	12een	12eeJ	.
*	*v	*v	*
=13	=13	=13
[8qGGG/ [8qCC#X	.	.
4GGG] 4CC#] 4AA-X 4D	4a-X 4bn 4ee 4aa-X	.
[2BBn [2Bn	12A-XL	.
.	12g	.
.	12eJ	.
.	12a-L	.
.	12e	.
.	12a-J	.
=14	=14	=14
2BB] 2B]	12gL	.
.	12ee	.
.	12gJ	.
.	12eeL	.
.	12a-X	.
.	12ggJ	.
4r	12a-L	.
.	12gg	.
.	12eeJ	.
=15	=15	=15
[8qGGG/ [8qDD-X [8qGG	.	.
4GGG] 4DD-] 4GG] 4E-- 4A-X	4a-X 4b-X 4ee-- 4ff 4aa-X	.
[2F	12E--L	.
.	12d-X	.
.	12B-XJ	.
.	12e--L	.
.	12B-	.
.	12e--J	.
=16	=16	=16
2F]	12d-XL	.
.	12b-X	.
.	12d-J	.
.	12b-L	.
.	12e--	.
.	12dd-XJ	.
4GG 4F 4c-X	12e-XL	.
.	12dd-	.
.	12b-J	.
=17	=17	=17
24r	[4b-X	.
24fLL	.	.
24c-X	.	.
24D-XJ	.	.
[12GJ	.	.
2G]	12b-L]	.
.	12cc-X	.
.	12ffJ	.
.	[4e--	.
*clefG2	*	*
=18	=18	=18
72e-LLL	8e--L]	.
72f	.	.
72g	.	.
72b-	.	.
72cc-	.	.
72ee-	.	.
72ff	.	.
72gg	.	.
72bb-JJJ	.	.
8r	8ccc-J	.
2r	[2e--	.
*clefF4	*	*
=19	=19	=19
4r	8e--]	.
.	8r	.
8EEnL	12FL	.
.	12en	.
8AA#X	.	.
.	12c#XJ	.
8G#X	12fL	.
.	12c#	.
8AA#J	.	.
.	12fJ	.
=20	=20	=20
8G#XL	12eL	.
.	12cc#X	.
8c#X	.	.
.	12eJ	.
8G#	12cc#L	.
.	12f	.
8c#J	.	.
.	12eeJ	.
8g#X	12fL	.
.	12ee	.
8r	.	.
.	12cc#J	.
=21	=21	=21
24r	[4cc#X	.
24g#XLL	.	.
24d	.	.
24EJ	.	.
[12A#XJ	.	.
2A#]	12cc#L]	.
.	12dd	.
.	12gg#XJ	.
.	[4f	.
*clefG2	*	*
=22	=22	=22
72f#LLL	8fL]	.
72g#	.	.
72a#	.	.
72cc#	.	.
72dd	.	.
72ff#	.	.
72gg#	.	.
72aa#	.	.
72ccc#JJJ	.	.
8r	8dddJ	.
4.r	4.fn	.
32qqqanLLL	.	.
32qqqb	.	.
32qqqcc#	.	.
32qqqee	.	.
32qqqffn	.	.
32qqqaan	.	.
32qqqbb	.	.
32qqqccc#	.	.
32qqqeeeJJJ	.	.
8r	8fff	.
*clefF4	*	*
=23	=23	=23
2.GG 2.C#X	2.A-X 2.B 2.e 2.a-X	.
=24	=24	=24
8GG 8F	12An 12B 12f 12an	.
.	24aLL	.
8r	24b	.
.	24cc#X	.
.	24eeJJ	.
4r	12ffL	.
.	12aa	.
.	12bbJ	.
4r	12ccc#XL	.
.	12eee	.
.	24qqaa/LL	.
.	24qqbb/	.
.	24qqccc#/	.
.	24qqeee/JJ	.
.	12fffJ	.
=25	=25	=25
*^	*	*
2D	2.GG	2.A-X 2.B 2.e 2.a-X	.
4C#X	.	.	.
=26	=26	=26	=26
2D	2.GG	2.A-X 2.B 2.e 2.a-X	.
4C#X	.	.	.
*v	*v	*	*
=27	=27	=27
8GGL	12A-XL	.
.	12g	.
8C#X	.	.
.	12eJ	.
8B	12a-XL	.
.	12e	.
8C#	.	.
.	12a-J	.
8B	12gL	.
.	12ee	.
8eJ	.	.
.	12gJ	.
=28	=28	=28
8BL	12eeL	.
.	12a-X	.
8eJ	.	.
.	12ggJ	.
4r	12a-L	.
.	12gg	.
.	12eeJ	.
4r	16aa-XLL	.
.	16gg	.
.	16ee	.
.	16a-JJ	.
=29	=29	=29
4GG 4F	4B 4f 4an	.
8r	8r	.
16qqGG/LL	.	.
16qqF/	.	.
16qqB/JJ	.	.
24aLL	8bb	.
24f	.	.
24BJJ	.	.
16FLL	8ffL	.
16GGJJ	.	.
8r	8eeJ	.
=30	=30	=30
4r	2a	.
8r	.	.
24fLL	.	.
24B	.	.
24FJJ	.	.
16GGnLL	4g#X	.
16GGGJJ	.	.
8r	.	.
=31	=31	=31
8r	4r	.
24CC#XLL	.	.
24GG	.	.
24FJJ	.	.
4.A	[2B [2f [2b	.
8G#X	.	.
=32	=32	=32
8r	2B] 2f] 2b]	.
24CC#XLL	.	.
24GGn	.	.
24FJJ	.	.
4.A	.	.
.	4r	.
8G#X	.	.
=33	=33	=33
*	*^	*
4r	4raa	4rc	.
4r	4raa	4rc	.
20FLL	10raa	20rc	.
20BJJ	.	20eLL	.
10r	10.a-X	20a-	.
.	.	20f	.
20r	.	20BJJ	.
=34	=34	=34	=34
20BLL	10raa	20rc	.
20F	.	20eLL	.
20GGJJ	10.an	20a	.
10r	.	20f	.
.	.	20BJJ	.
4r	10raa	4rc	.
.	10qf/	.	.
.	10.b	.	.
20FLL	10raa	20rc	.
20B	.	20eLL	.
20aJJ	10.cc#X	20cc#	.
10r	.	20f	.
.	.	20BJJ	.
=35	=35	=35	=35
20d-XLL	10raa	20rc	.
20A-X	.	20eLL	.
20BB-XJJ	10.ee	20ee	.
10r	.	20f	.
.	.	20d-XJJ	.
24A-LL	4raa	4rc	.
24d-	.	.	.
24a-XJJ	.	.	.
8r	.	.	.
4r	4e	4rc	.
*	*v	*v	*
=36	=36	=36
20d-XLL	4f	.
20A-X	.	.
20BB-XJJ	.	.
10r	.	.
4r	4g	.
16qqEE/LL	.	.
16qqDn/JJ	.	.
4F#X	4G#X 4dn 4g#X	.
=37	=37	=37
16FnLL	4A 4B 4f 4a	.
16GGnJJ	.	.
8r	.	.
8r	8r	.
16qqGG/LL	.	.
16qqF/	.	.
16qqB/JJ	.	.
24aLL	8bb	.
24f	.	.
24BJJ	.	.
16FLL	8ffL	.
16GGJJ	.	.
8r	8eeJ	.
=38	=38	=38
4r	2a	.
8r	.	.
24fLL	.	.
24B	.	.
24FJJ	.	.
16GGnLL	4g#X	.
16GGGJJ	.	.
8r	.	.
=39	=39	=39
*	*^	*
8r	4raa	4rc	.
24CC#XLL	.	.	.
24GG	.	.	.
24FJJ	.	.	.
4.A	[2b	[2B [2f	.
8G#X	.	.	.
=40	=40	=40	=40
8r	2b]	2.B] 2.f]	.
24CC#XLL	.	.	.
24GGn	.	.	.
24FJJ	.	.	.
4A	.	.	.
4B-X	4b-X	.	.
=41	=41	=41	=41
8r	4raa	4rc	.
24DD-XLL	.	.	.
24GG	.	.	.
24FJJ	.	.	.
4.B-X	[2dd-X	[2c-X [2f	.
8A	.	.	.
=42	=42	=42	=42
8r	2dd-]	2.c-] 2.f]	.
24DD-XLL	.	.	.
24GG	.	.	.
24FJJ	.	.	.
4B-X	.	.	.
4c-X	4ccn	.	.
=43	=43	=43	=43
12r	4raa	4rc	.
12GGL	.	.	.
12D-XJ	.	.	.
4.c-X	[2ee-X	[2f [2cc-X	.
8B-X	.	.	.
=44	=44	=44	=44
12r	2ee-]	2.f] 2.cc-]	.
12GGL	.	.	.
12D-XJ	.	.	.
4c-X	.	.	.
4dn	4dd	.	.
=45	=45	=45	=45
16r	[2ff	12rc	.
16GGLL	.	.	.
.	.	12cc-XL	.
16D-X	.	.	.
.	.	12fJ	.
16c-XJJ	.	.	.
4.e-X	.	4cc-	.
.	6ff]	12fL	.
.	.	12cc-J	.
8f-X	.	.	.
.	12ff-X	12rc	.
=46	=46	=46	=46
20r	[2aa-X	12rc	.
20CC#XLL	.	.	.
.	.	12bL	.
20GG	.	.	.
20Fn	.	.	.
.	.	12fnJ	.
20BJJ	.	.	.
4en	.	4b	.
4e-X	12aa-L]	12fL	.
.	12gg	12bJ	.
.	12ff#XJ	12rc	.
=47	=47	=47	=47
16r	[2ffn	12rc	.
16GGLL	.	.	.
.	.	12cc-XL	.
16D-X	.	.	.
.	.	12fJ	.
16c-XJJ	.	.	.
4.e-X	.	4cc-	.
.	6ff]	12fL	.
.	.	12cc-J	.
8f-X	.	.	.
.	12ff-X	12rc	.
=48	=48	=48	=48
20rD	[2aa-X	12rc	.
20CC#XLL	.	.	.
.	.	12bL	.
20GG	.	.	.
20F	.	.	.
.	.	12fJ	.
20BJJ	.	.	.
4en	.	4b	.
4e-X	6aa-]	12fL	.
.	.	12bJ	.
.	12gg	12rc	.
=49	=49	=49	=49
20rD	[2aa-X	12rc	.
20CC#XLL	.	.	.
.	.	12bL	.
20GG	.	.	.
20F	.	.	.
.	.	12fJ	.
20BJJ	.	.	.
4en	.	4b	.
4e-X	6aa-]	12fL	.
.	.	12bJ	.
.	12gg	12rc	.
=50	=50	=50	=50
20rD	[2aan	12rc	.
20CC#XLL	.	.	.
.	.	12bL	.
20GG	.	.	.
20F	.	.	.
.	.	12fJ	.
20BJJ	.	.	.
4en	.	4b	.
4e-X	6aa]	12fL	.
.	.	12bJ	.
.	12gg#X	12rc	.
*	*v	*v	*
=51	=51	=51
2.r	2.r	.
=52	=52	=52
*^	*	*
*	*^	*	*
.	16qqCC#X\LL	[8qCC#/	.	.
.	[16qqGG\JJ	.	.	.
2A	2.GG_	2.CC#/_	[2.f [2.b [2.ff [2.bb	.
4G#X	.	.	.	.
=53	=53	=53	=53	=53
2F	2.GG]	2.CC#/]	2.f] 2.b] 2.ff] 2.bb]	.
4E	.	.	.	.
*	*v	*v	*	*
=54	=54	=54	=54
2D	2.CC#X 2.GG	2.A-X 2.B 2.e 2.a-X	.
4C#X	.	.	.
*v	*v	*	*
=55	=55	=55
4GG 4F	4An 4B 4f 4an	.
8r	8r	.
16qqGG/LL	.	.
16qqF/	.	.
16qqB/JJ	.	.
24aLL	8bb	.
24f	.	.
24BJJ	.	.
16FLL	8ffL	.
16GGJJ	.	.
8r	8eeJ	.
=56	=56	=56
4r	2a	.
8r	.	.
24fLL	.	.
24B	.	.
24FJJ	.	.
16GGnLL	4g#X	.
16GGGJJ	.	.
8r	.	.
=57	=57	=57
8r	4r	.
24GGGLL	.	.
24CC#X	.	.
24FJJ	.	.
4.A	[2B [2f [2b	.
8G#X	.	.
=58	=58	=58
8r	2B] 2f] 2b]	.
24GGGnLL	.	.
24CC#X	.	.
24FJJ	.	.
4.A	.	.
.	4r	.
8G#X	.	.
=59	=59	=59
2.r	2.r	.
=60	=60	=60
*^	*	*
*	*^	*	*
.	16qqGG\LL	[8qGGn/	.	.
.	[16qqC#X\JJ	.	.	.
2A	2.C#]	2.GG/_	[2.B 2.f [2.b	.
4G#X	.	.	.	.
*	*v	*v	*	*
=61	=61	=61	=61
2F	2.GG]	2.B] 2.c#X 2.b]	.
4E	.	.	.
=62	=62	=62	=62
2D	2.GG	2.A-X 2.B 2.e 2.a-X	.
4C#X	.	.	.
=63	=63	=63	=63
2F	2.GG	12An 12B 12f 12an	.
.	.	24aLL	.
.	.	24b	.
.	.	24cc#X	.
.	.	24eeJJ	.
.	.	12ffL	.
.	.	12aa	.
.	.	12bbJ	.
4E	.	12ccc#XL	.
.	.	12eee	.
.	.	24qqaa/LL	.
.	.	24qqbb/	.
.	.	24qqccc#/	.
.	.	24qqeee/JJ	.
.	.	12fffJ	.
=64	=64	=64	=64
2D	2.GG	2.A-X 2.B 2.e 2.a-X	.
4C#X	.	.	.
=65	=65	=65	=65
2F	2.GG	12An 12B 12f 12an	.
.	.	24aLL	.
.	.	24b	.
.	.	24cc#X	.
.	.	24eeJJ	.
.	.	12ffL	.
.	.	12aa	.
.	.	12bbJ	.
4C#X	.	12ccc#XL	.
.	.	12eee	.
.	.	24qqaa/LL	.
.	.	24qqbb/	.
.	.	24qqccc#/	.
.	.	24qqeee/JJ	.
.	.	12fffJ	.
=66	=66	=66	=66
2Cn	2.FF	2.G-X 2.A 2.d 2.g-X	.
4BB	.	.	.
=67	=67	=67	=67
2E-X	2.FF	12Gn 12A 12e-X 12gn	.
.	.	24gLL	.
.	.	24a	.
.	.	24b	.
.	.	24ddJJ	.
.	.	12ee-XL	.
.	.	12gg	.
.	.	12aaJ	.
4D	.	12bbL	.
.	.	12ddd	.
.	.	24qqgg/LL	.
.	.	24qqaa/	.
.	.	24qqbb/	.
.	.	24qqddd/JJ	.
.	.	12eee-XJ	.
=68	=68	=68	=68
2C	[2.FF	[2.G-X [2.A [2.d [2.g-X	.
4BB	.	.	.
=69	=69	=69	=69
2C	2.FF]	2.G-] 2.A] 2.d] 2.g-]	.
4BB	.	.	.
=70	=70	=70	=70
*	*	*^	*
.	.	.	8qA\	.
16%3Gn	2.FF 2.BB	8%3.a	2.e-X	.
16%3G-X	.	.	.	.
16%3Gn	.	.	.	.
16%3A-X	.	16%3a-X	.	.
*v	*v	*	*	*
*	*v	*v	*
=71	=71	=71
4BB 4An	4c#X 4d#X 4an 4cc#X	.
8r	8r	.
.	8qa/	.
16qqBB/LL	.	.
16qqA/	.	.
16qqd#X/JJ	.	.
*clefG2	*	*
24cc#XLL	8ddd#X	.
24a	.	.
24g#XJJ	.	.
24e#XLL	8aaL	.
24d#X	.	.
24g#	.	.
24e#	8gg#XJ	.
24d#	.	.
24c#XJJ	.	.
=72	=72	=72
12AL	2cc#X	.
24c#XL	.	.
24d#X	.	.
24e#X	.	.
24g#XJJ	.	.
2a	.	.
.	4b#X	.
*clefF4	*	*
=73	=73	=73
*	*^	*
16r	4raa	4rc	.
16AA-XLL	.	.	.
16G-X	.	.	.
16cnJJ	.	.	.
4B-X 4b-X	4g-X 4ccn 4ee-X	4rc	.
20G-LL	10raa	20rc	.
20cJJ	.	20fLL	.
10r	10.b--	20b--	.
.	.	20g-	.
20r	.	20cJJ	.
=74	=74	=74	=74
20cLL	10raa	20rc	.
20G-X	.	20fLL	.
20AA-XJJ	10.b-X	20b-	.
10r	.	20g-X	.
.	.	20cJJ	.
4r	10raa	4rc	.
.	10qg-/	.	.
.	10.cc	.	.
20G-LL	10raa	20rc	.
20c	.	20fLL	.
20b-XJJ	10.dd	20dd	.
10r	.	20g-	.
.	.	20cJJ	.
=75	=75	=75	=75
20c-XLL	10raa	20rc	.
20D-X	.	20fLL	.
20AA-XJJ	10.ff	20ff	.
10r	.	20g-X	.
.	.	20e-XJJ	.
24c-LL	8raa	8rc	.
24f	.	.	.
*clefG2	*	*	*
24ee-XJJ	.	.	.
*clefF4	*	*	*
16qqAA-/LL	.	.	.
16qqD-/	.	.	.
16qqc-/	.	.	.
16qqf/JJ	8qcc-X/	.	.
*clefG2	*	*	*
24ee-LL	8fff	8rc	.
24cc-X	.	.	.
24b-XJJ	.	.	.
24bnLL	8ccc-XL	4rc	.
24f	.	.	.
24b	.	.	.
24g	8bb-XJ	.	.
24f	.	.	.
24e-XJJ	.	.	.
*	*v	*v	*
=76	=76	=76
12c-XL	2ee-X	.
24e-XL	.	.
24f	.	.
24g	.	.
24b-XJJ	.	.
2cc-X	.	.
.	4ddn	.
*clefF4	*	*
=77	=77	=77
*^	*	*
*	*^	*	*
*	*	*^	*	*
8r	8r	8r	8rD	20%3r	.
[8.qGG	.	16qqGGL	.	.	.
.	[8qF	16qqF	.	.	.
.	.	[16qqBnJ	.	.	.
8GG]	8F]	8B]	8A 8a	.	.
.	.	.	.	20%3f 20%3bn 20%3ff	.
2r	2r	2r	8BBB	.	.
.	.	.	.	20%3gg#X 20%3ggg#X	.
.	.	.	8EEn	.	.
.	.	.	.	20%3dd 20%3ddd	.
.	.	.	8D	.	.
.	.	.	.	20%3cc#X 20%3ccc#X	.
.	.	.	8G#X	.	.
*v	*v	*	*	*	*
*v	*v	*	*	*
*v	*v	*	*
=78	=78	=78
4c#X	2f#X 2ff#X	.
4B	.	.
4r	4e#X 4ee#X	.
=79	=79	=79
*^	*^	*
*	*^	*	*	*
4rc	24rEE	6r	[2gg#X	12rc	.
.	24BBBLL	.	.	.	.
.	24EEn	.	.	12ddL	.
.	24D	.	.	.	.
.	24G#X	[12G#\	.	12g#XJ	.
.	[24dJJ	.	.	.	.
[4F#X [4f#X	2d]	2G#\]	.	4dd	.
6F#] 6f#]	.	.	6gg#]	12g#L	.
.	.	.	.	12ddJ	.
12Gn 12gn	.	.	12ggn	12rc	.
*	*v	*v	*	*	*
=80	=80	=80	=80	=80
2G 2g	20rEE	[2ccc-X	12rc	.
.	20dLL	.	.	.
.	.	.	12ddL	.
.	20A-X	.	.	.
.	20D	.	.	.
.	.	.	12a-XJ	.
.	20EEJJ	.	.	.
.	8BBB-X	.	4dd	.
.	8rEE	.	.	.
4G-X 4g-X	4rEE	12ccc-L]	12a-L	.
.	.	12bb-X	12ddJ	.
.	.	12aanJ	12rc	.
=81	=81	=81	=81	=81
*	*^	*	*	*
4rc	24rEE	6r	[2gg#X	12rc	.
.	24BBBnLL	.	.	.	.
.	24EE	.	.	12ddL	.
.	24D	.	.	.	.
.	24G#X	[12G#\	.	12g#XJ	.
.	[24dJJ	.	.	.	.
[4F#X [4f#X	2d]	2G#\]	.	4dd	.
6F#] 6f#]	.	.	6gg#]	12g#L	.
.	.	.	.	12ddJ	.
12Gn 12gn	.	.	12ggn	12rc	.
*	*v	*v	*	*	*
=82	=82	=82	=82	=82
2G 2g	20rEE	[2ccc-X	12rc	.
.	20dLL	.	.	.
.	.	.	12ddL	.
.	20A-X	.	.	.
.	20D	.	.	.
.	.	.	12a-XJ	.
.	20EEJJ	.	.	.
.	8BBB-X	.	4dd	.
.	8rEE	.	.	.
6G-X 6g-X	4rEE	6ccc-]	12a-L	.
.	.	.	12ddJ	.
12Gn 12gn	.	12bb-X	12rc	.
=83	=83	=83	=83	=83
*	*^	*	*	*
4rc	24rEE	6r	[2aa#X	12rc	.
.	24CC#XLL	.	.	.	.
.	24FF#X	.	.	12eeL	.
.	24E	.	.	.	.
.	24A#X	[12A#\	.	12a#XJ	.
.	[24eJJ	.	.	.	.
[4G#X [4g#X	2e]	2A#\]	.	4ee	.
6G#] 6g#]	.	.	6aa#]	12a#L	.
.	.	.	.	12eeJ	.
12An 12an	.	.	12aan	12rc	.
*	*v	*v	*	*	*
=84	=84	=84	=84	=84
2A 2a	20rEE	[2ddd-X	12rc	.
.	20eLL	.	.	.
.	.	.	12eeL	.
.	20B-X	.	.	.
.	20E	.	.	.
.	.	.	12b-XJ	.
.	20FF#XJJ	.	.	.
.	8CCn	.	4ee	.
.	8rEE	.	.	.
4A-X 4a-X	4rEE	12ddd-L]	12b-L	.
.	.	12ccc	12eeJ	.
.	.	12bbnJ	12rc	.
=85	=85	=85	=85	=85
*	*^	*	*	*
4rc	24rEE	6r	[2aa#X	12rc	.
.	24CC#XLL	.	.	.	.
.	24FF#X	.	.	12eeL	.
.	24E	.	.	.	.
.	24A#X	[12A#\	.	12a#XJ	.
.	[24eJJ	.	.	.	.
[4G#X [4g#X	2e]	2A#\]	.	4ee	.
6G#] 6g#]	.	.	6aa#]	12a#L	.
.	.	.	.	12eeJ	.
12An 12an	.	.	12aan	12rc	.
*	*v	*v	*	*	*
=86	=86	=86	=86	=86
2A 2a	20rEE	[2ddd-X	12rc	.
.	20eLL	.	.	.
.	.	.	12eeL	.
.	20B-X	.	.	.
.	20E	.	.	.
.	.	.	12b-XJ	.
.	20FF#XJJ	.	.	.
.	8CCn	.	4ee	.
.	8rEE	.	.	.
6A-X 6a-X	4rEE	6ddd-]	12b-L	.
.	.	.	12eeJ	.
12An 12an	.	12ccc	12rc	.
=87	=87	=87	=87	=87
*	*^	*	*	*
4rc	24rEE	6r	[2bb#X	12rc	.
.	24DD#XLL	.	.	.	.
.	24GG#X	.	.	12ff#XL	.
.	24F#X	.	.	.	.
.	24B#X	[12B#\	.	12b#XJ	.
.	[24f#XJJ	.	.	.	.
[4A#X [4a#X	2f#]	2B#\]	.	4ff#	.
6A#] 6a#]	.	.	6bb#]	12b#L	.
.	.	.	.	12ff#J	.
[12Bn [12bn	.	.	12bbn	12rc	.
*	*v	*v	*	*	*
=88	=88	=88	=88	=88
2B] 2b]	20rEE	[2eee-X	12rc	.
.	20f#XLL	.	.	.
.	.	.	12ff#XL	.
.	20c	.	.	.
.	20F#X	.	.	.
.	.	.	12ccJ	.
.	20GG#XJJ	.	.	.
.	8DDn	.	4ff#	.
.	8rEE	.	.	.
4B-X 4b-X	4rEE	6eee-]	12ccL	.
.	.	.	12ff#J	.
.	.	12ddd	12rc	.
=89	=89	=89	=89	=89
2Bn 2bn	20rEE	[2eee-X	12rc	.
.	20f#XLL	.	.	.
.	.	.	12ff#XL	.
.	20c	.	.	.
.	20F#X	.	.	.
.	.	.	12ccJ	.
.	20GG#XJJ	.	.	.
.	8DD	.	4ff#	.
.	8rEE	.	.	.
4B-X 4b-X	4rEE	6eee-]	12ccL	.
.	.	.	12ff#J	.
.	.	12ddd	12rc	.
=90	=90	=90	=90	=90
8BnL 8bn	4c 4f#X	6ee-X 6eee-X	4ff#X	.
8B-XJ 8b-X	.	.	.	.
.	.	12dd 12ddd	.	.
8BnL 8bn	4c 4f#	6ee- 6eee-	4ff#	.
8B-XJ 8b-X	.	.	.	.
.	.	12dd 12ddd	.	.
8BnL 8bn	4c 4f#	6ee- 6eee-	4ff#	.
8B-XJ 8b-X	.	.	.	.
.	.	12dd 12ddd	.	.
*v	*v	*	*	*
=91	=91	=91	=91
4r	4raa	4rc	.
4r	4raa	4rc	.
20cLL	10raa	20rc	.
20f#XJJ	.	20bnLL	.
10r	10.ee-X	20ee-	.
.	.	20cc	.
20r	.	20f#XJJ	.
=92	=92	=92	=92
20cLL	10raa	20rc	.
20D	.	20bLL	.
20AAJJ	10.een	20ee	.
10r	.	20cc	.
.	.	20f#XJJ	.
4r	10raa	4rc	.
.	10qcc/	.	.
.	10.ff#X	.	.
24cLL	10raa	20rc	.
24f#X	.	.	.
.	.	20bLL	.
*clefG2	*	*	*
24eeJJ	.	.	.
.	10.gg#X	20gg#	.
8r	.	.	.
.	.	20cc	.
.	.	20f#JJ	.
*clefF4	*	*	*
=93	=93	=93	=93
*^	*	*	*
20cLL	4rEE	10raa	20rc	.
20Fn	.	.	20bLL	.
20AAJ	.	10.bb	20bb	.
10e-XJ	.	.	20cc	.
.	.	.	20a-XJJ	.
8c	20cLL	4raa	4rc	.
.	20a-X	.	.	.
.	20f	.	.	.
8rc	.	.	.	.
.	20e-	.	.	.
.	20cJJ	.	.	.
8a-	20a-LL	8b	32bLLL	.
.	.	.	32cc	.
.	20f	.	.	.
.	.	.	32b	.
.	.	.	32ccJ	.
.	20e-	.	.	.
8rc	.	8raa	16bJJ	.
.	20c	.	.	.
.	.	.	16rc	.
.	20a-JJ	.	.	.
=94	=94	=94	=94	=94
8f	20fLL	8cc	32ccLLL	.
.	.	.	32dd	.
.	20e-X	.	.	.
.	.	.	32cc	.
.	.	.	32ddJ	.
.	20c	.	.	.
8rc	.	8raa	16ccJJ	.
.	20a-X	.	.	.
.	.	.	16rc	.
.	20fJJ	.	.	.
8e-	20e-LL	8dd	32ddLLL	.
.	.	.	32ee-X	.
.	20c	.	.	.
.	.	.	32dd	.
.	.	.	32ee-J	.
.	20a-	.	.	.
8rc	.	8raa	16ddJJ	.
.	20f	.	.	.
.	.	.	16rc	.
.	20e-JJ	.	.	.
8c	20cLL	8ee-	32ee-LLL	.
.	.	.	32ff	.
.	20a-	.	.	.
.	.	.	32ee-	.
.	.	.	32ffJ	.
.	20f	.	.	.
8rc	.	8raa	16ee-JJ	.
.	20e-	.	.	.
.	.	.	16rc	.
.	20cJJ	.	.	.
*	*	*v	*v	*
=95	=95	=95	=95
8an	20aLL	2een	.
.	20f#X	.	.
.	20en	.	.
8rc	.	.	.
.	20c	.	.
.	20DJJ	.	.
8AA	4rEE	.	.
8rc	.	.	.
24bLL	4rEE	4ee-X	.
24cc	.	.	.
24f#	.	.	.
24c	.	.	.
24D	.	.	.
24AAJJ	.	.	.
*v	*v	*	*
=96	=96	=96
24bLL	4een	.
24cc	.	.
24f#X	.	.
24c	.	.
24D	.	.
24AAJJ	.	.
.	8qcc/	.
4r	4ff#X	.
24bLL	4gg#X	.
24cc	.	.
24f#	.	.
24c	.	.
24f#	.	.
*clefG2	*	*
24eeJJ	.	.
*clefF4	*	*
=97	=97	=97
*^	*^	*
24bLL	4rEE	2bb	4rc	.
24b#X	.	.	.	.
24f#X	.	.	.	.
24B#X	.	.	.	.
24F#X	.	.	.	.
24GG#XJJ	.	.	.	.
*clefG2	*	*	*	*
20d#XLL	4d#	.	12dd#XL	.
20bn	.	.	.	.
.	.	.	12dd#	.
20a	.	.	.	.
20f#X	.	.	.	.
.	.	.	12bJ 12dd#	.
20d#JJ	.	.	.	.
20bLL	4b	4aa	12dd#L	.
20a	.	.	.	.
.	.	.	12b 12dd#	.
20f#	.	.	.	.
20d#	.	.	.	.
.	.	.	12dd#J	.
20bJJ	.	.	.	.
=98	=98	=98	=98	=98
20aLL	4a	4bb	12dd#XL	.
20f#X	.	.	.	.
.	.	.	12dd#	.
20d#X	.	.	.	.
20b	.	.	.	.
.	.	.	12dd#J	.
20aJJ	.	.	.	.
20f#LL	4f#	4ccc	12ccL 12ff#X	.
20d#	.	.	.	.
.	.	.	12cc 12ff#	.
20b	.	.	.	.
20a	.	.	.	.
.	.	.	12ccJ 12ff#	.
20f#JJ	.	.	.	.
24d#LL	4d#	4ddd#X	12dd#L 12ff#	.
24b	.	.	.	.
24a	.	.	12dd# 12ff#	.
16f#	.	.	.	.
.	.	.	12dd#J 12ff#	.
16d#JJ	.	.	.	.
*v	*v	*	*	*
=99	=99	=99	=99
[8qDD-X/ [8qGG [8qE-- [8qA-X	.	.	.
10DD-] 10GG] 10E--] 10A-] 10e-- 10fn 10a-X 10b-X 10ee--	2.fffn	12ffnL 12bb-X 12eee--	.
.	.	12ff 12bb- 12eee--	.
20ee--LL	.	.	.
20b-	.	.	.
.	.	12ffJ 12bb- 12eee--	.
20a-JJ	.	.	.
20fLL	.	12ffL 12bb- 12eee--	.
20e--	.	.	.
.	.	12ff 12bb- 12eee--	.
20ee--	.	.	.
20b-	.	.	.
.	.	12ffJ 12bb- 12eee--	.
20a-JJ	.	.	.
20fLL	.	12ffL 12bb- 12eee--	.
20e--	.	.	.
.	.	12ff 12bb- 12eee--	.
20ee--	.	.	.
20b-	.	.	.
.	.	12ffJ 12bb- 12eee--	.
20a-JJ	.	.	.
*	*v	*v	*
=100	=100	=100
2.r	2.r	.
=101	=101	=101
[8qDD-X/ [8qGG [8qE-- [8qA-X	.	.
*	*^	*
10DD-] 10GG] 10E--] 10A-] 10e-- 10f 10a-X 10b-X 10ee--	2.fff	12ffL 12bb-X 12eee--	.
.	.	12ff 12bb- 12eee--	.
20ee--LL	.	.	.
20b-	.	.	.
.	.	12ffJ 12bb- 12eee--	.
20a-JJ	.	.	.
20fLL	.	12ffL 12bb- 12eee--	.
20e--	.	.	.
.	.	12ff 12bb- 12eee--	.
20ee--	.	.	.
20b-	.	.	.
.	.	12ffJ 12bb- 12eee--	.
20a-JJ	.	.	.
20fLL	.	12ffL 12bb- 12eee--	.
20e--	.	.	.
.	.	12ff 12bb- 12eee--	.
20ee--	.	.	.
20b-	.	.	.
.	.	12ffJ 12bb- 12eee--	.
20a-JJ	.	.	.
*	*v	*v	*
=102	=102	=102
2.r	2.r	.
*clefF4	*	*
=103	=103	=103
8DD-XL	12E--L	.
.	12d-X	.
8GG	.	.
.	12B-XJ	.
8F	12e--L	.
.	12B-	.
8GG	.	.
.	12e--J	.
8F	12d-L	.
.	12b-X	.
8B-XJ	.	.
.	12d-J	.
=104	=104	=104
8FL	12b-XL	.
.	12e--	.
8B-XJ	.	.
.	12dd-XJ	.
8f	12e--L	.
.	12dd-	.
8r	.	.
.	12b-J	.
4r	12e--L	.
.	12B-X	.
.	12d-XJ	.
=105	=105	=105
8DD-XL	12E--L	.
.	12d-X	.
8GG	.	.
.	12B-XJ	.
8F	12e--L	.
.	12B-	.
8GG	.	.
.	12e--J	.
8F	12d-L	.
.	12b-X	.
8B-XJ	.	.
.	12d-J	.
=106	=106	=106
8FL	12b-XL	.
.	12e--	.
8B-X	.	.
.	12dd-XJ	.
8f	12e--L	.
.	12dd-	.
8B-	.	.
.	12b-J	.
8F	12ee--L	.
.	12b-	.
8B-J	.	.
.	12ee--J	.
=107	=107	=107
8fL	12dd-XL	.
.	12b-X	.
8B-X	.	.
.	12e--J	.
8F	12dd-L	.
.	12b-	.
8B-	.	.
.	12ee--J	.
8f	12b-L	.
.	12ee--	.
8B-J	.	.
.	12dd-J	.
=108	=108	=108
8FL	12b-XL	.
.	12e--	.
8B-X	.	.
.	12dd-XJ	.
8f	12b-L	.
.	12ee--	.
8B-J	.	.
.	12b-J	.
8F	12ee--L	.
.	12dd-	.
8r	.	.
.	12b-J	.
=109	=109	=109
*M9/8	*M9/8	*
16r	[4.b-X	.
16fLL	.	.
16c-X	.	.
16D-XJ	.	.
[8GJ	.	.
2.G]	8b-L]	.
.	8cc-X	.
.	8ffJ	.
.	[4.e--	.
=110	=110	=110
4r	4.e--_	.
8r	.	.
16fLL	8.e--L]	.
16c-X	.	.
16D-XJJ	.	.
16r	16e-XL	.
8r	16b-X	.
.	16cc-XJJ	.
16c-LL	4ff	.
16F	.	.
16GGJJ	.	.
16r	.	.
8r	[8e--	.
=111	=111	=111
16fLL	8.e--L]	.
16c-X	.	.
16D-XJJ	.	.
16r	16e-XL	.
8r	16b-X	.
.	16cc-XJJ	.
16c-LL	4ff	.
16F	.	.
16GGJJ	.	.
16r	.	.
8r	[8e--	.
16FLL	8e--L]	.
16GG	.	.
16DD-XJJ	8cc-	.
16r	.	.
8r	8b-J	.
=112	=112	=112
[8qAAA/ [8qDD#X	.	.
*	*^	*
4.AAA] 4.DD#] 4.BB-X 4.En	4.B-X 4.f#X 4.b-X [4.cc#X	4rc	.
.	.	8rc	.
2.c#X	8cc#]	8B-L	.
.	4a	8a	.
.	.	8f#J	.
.	4b-	8b-L	.
.	.	8f#	.
.	8cc#	8cc#J	.
*	*v	*v	*
=113	=113	=113
16r	[4.ccn	.
16gLL	.	.
16d-X	.	.
16E-XJ	.	.
[8AJ	.	.
2.A]	8ccL]	.
.	8dd-X	.
.	8ggJ	.
.	[4.f-X	.
=114	=114	=114
4r	4.f-_	.
8r	.	.
16gLL	8.f-L]	.
16d-X	.	.
16E-XJJ	.	.
16r	16fnL	.
8r	16cc	.
.	16dd-XJJ	.
16d-LL	4gg	.
16G	.	.
16AAJJ	.	.
16r	.	.
8r	[8f-X	.
=115	=115	=115
16gLL	8.f-L]	.
16d-X	.	.
16E-XJJ	.	.
16r	16fnL	.
8r	16cc	.
.	16dd-XJJ	.
16d-LL	4gg	.
16G	.	.
16AAJJ	.	.
16r	.	.
8r	[8f-X	.
16GLL	8f-L]	.
16AA	.	.
16EE-XJJ	8dd-	.
16r	.	.
8r	8ccJ	.
=116	=116	=116
[8qBBB/ [8qEE#X	.	.
4BBB] 4EE#] 4C 4F#X	8.cL 8.g#X 8.cc 8.dd#X	.
.	16gnL	.
8r	16ddn	.
.	16ee-XJJ	.
16e-XLL	4aa	.
16A	.	.
16BBJJ	.	.
16r	.	.
8r	[8g-X	.
16ALL	8g-L]	.
16BB	.	.
16FFnJJ	8ee-	.
16r	.	.
8r	8ddJ	.
=117	=117	=117
*M3/4	*M3/4	*
[8qBBB/ [8qEE#X	.	.
*	*^	*
4BBB] 4EE#] 4C 4F#X	4c 4g#X 4cc 4dd#X	4rc	.
2D#X 2d#X	12raa	12cL	.
.	6b	12b	.
.	.	12g#J	.
.	6cc	12ccL	.
.	.	12g#	.
.	12ddn	12ddJ	.
=118	=118	=118	=118
[8qBBB/ [8qEE#X	.	.	.
4BBB] 4EE#] 4C 4F#X	4c 4g#X 4cc 4dd#X	4rc	.
2D#X 2d#X	12raa	12cL	.
.	6b	12b	.
.	.	12g#J	.
.	6cc	12ccL	.
.	.	12g#	.
.	12een	12eeJ	.
=119	=119	=119	=119
[8qAAA-X/ [8qDDn	.	.	.
4AAA-] 4DD] 4BB-- 4E-X	4f 4b-- 4cc 4ff	4rc	.
2C 2c	12raa	12fL	.
.	6cc-X	12cc-	.
.	.	12a-XJ	.
.	6ccn	12ccL	.
.	.	12b--	.
.	12een	12eeJ	.
=120	=120	=120	=120
[8qAAA-X/ [8qDD	.	.	.
4AAA-] 4DD] 4BB-- 4E-X	4f 4b-- 4cc 4ff	4rc	.
2C 2c	12raa	12fL	.
.	6cc-X	12cc-	.
.	.	12a-XJ	.
.	6ccn	12ccL	.
.	.	12b--	.
.	12een	12eeJ	.
*	*v	*v	*
=121	=121	=121
[8qGGG/ [8qCC#X	.	.
4GGG] 4CC#] 4AA-X 4D	4a-X 4bn 4ee 4aa-X	.
[2BBn [2Bn	12A-XL	.
.	12g	.
.	12eJ	.
.	12a-L	.
.	12e	.
.	12a-J	.
=122	=122	=122
2BB] 2B]	12gL	.
.	12ee	.
.	12gJ	.
.	12eeL	.
.	12a-X	.
.	12ggJ	.
4r	12a-L	.
.	12gg	.
.	12eeJ	.
=123	=123	=123
[8qGGG/ [8qDD-X [8qGG	.	.
4GGG] 4DD-] 4GG] 4E-- 4A-X	4a-X 4b-X 4ee-- 4ff 4aa-X	.
[2F	12E--L	.
.	12d-X	.
.	12B-XJ	.
.	12e--L	.
.	12B-	.
.	12e--J	.
=124	=124	=124
*	*^	*
*	*	*^	*
2F]	12d-XL	4rc	4r	.
.	12b-X	.	.	.
.	12d-J	.	.	.
.	12b-L	4rc	4r	.
.	12e--	.	.	.
.	12dd-XJ	.	.	.
4GG 4F 4c-X	12e--L	4e--	12r	.
.	12dd-	.	6ee--\	.
.	12b-J	.	.	.
*	*	*v	*v	*
*	*v	*v	*
=125	=125	=125
4D-X 4c-X	4e-X 4f 4cc-X 4ee-X	.
8r	8r	.
16qqD-/LL	.	.
16qqc-/	.	.
16qqf/JJ	.	.
*clefG2	*	*
24ee-XLL	8fff	.
24cc-X	.	.
24fJJ	.	.
*clefF4	*	*
16c-LL	8ccc-XL	.
16D-JJ	.	.
8r	8bb-XJ	.
*clefG2	*	*
=126	=126	=126
4r	2ee-X	.
8r	.	.
24cc-XLL	.	.
24f	.	.
24c-XJJ	.	.
*clefF4	*	*
16D-XLL	4ddn	.
16DD-XJJ	.	.
8r	.	.
=127	=127	=127
8r	4r	.
24GGLL	.	.
24D-X	.	.
24c-XJJ	.	.
4.e-X	[2f [2cc-X [2ff	.
8dn	.	.
=128	=128	=128
8r	2f] 2cc-] 2ff]	.
24GGLL	.	.
24D-X	.	.
24c-XJJ	.	.
4.e-X	.	.
.	4r	.
8dn	.	.
=129	=129	=129
*	*^	*
4r	4raa	4rc	.
4r	4raa	4rc	.
20c-XLL	10raa	20rc	.
20fJJ	.	20b-XLL	.
10r	10.ee--	20ee--	.
.	.	20cc-X	.
20r	.	20fJJ	.
=130	=130	=130	=130
20fLL	10raa	20rc	.
20c-X	.	20b-XLL	.
20D-XJJ	10.ee-X	20ee-	.
10r	.	20cc-X	.
.	.	20fJJ	.
4r	10raa	4rc	.
.	10qcc-/	.	.
.	10.ff	.	.
20c-LL	10raa	20rc	.
20f	.	20b-LL	.
*clefG2	*	*	*
20ee-XJJ	10.gg	20gg	.
10r	.	20cc-	.
.	.	20fJJ	.
=131	=131	=131	=131
20a--LL	10raa	20rc	.
20e--	.	20b-XLL	.
*clefF4	*	*	*
20F-XJJ	10.bb-X	20bb-	.
10r	.	20cc-X	.
.	.	20a--JJ	.
*clefG2	*	*	*
20e--LL	4raa	4rc	.
20a--	.	.	.
20ee--JJ	.	.	.
10r	.	.	.
4r	4b-	4rc	.
*	*v	*v	*
=132	=132	=132
20a--LL	4cc-X	.
20e--	.	.
*clefF4	*	*
20F-XJJ	.	.
10r	.	.
4r	4dd-X	.
16qqBB-X/LL	.	.
16qqA-X/JJ	.	.
4cn	4dn 4a-X 4ddn	.
=133	=133	=133
16c-XLL	4e-X 4f 4cc-X 4ee-	.
16D-XJJ	.	.
8r	.	.
8r	8r	.
16qqD-/LL	.	.
16qqc-/	.	.
16qqf/JJ	.	.
*clefG2	*	*
24ee-XLL	8fff	.
24cc-X	.	.
24fJJ	.	.
*clefF4	*	*
16c-LL	8ccc-XL	.
16D-JJ	.	.
8r	8bb-XJ	.
*clefG2	*	*
=134	=134	=134
4r	2ee-X	.
8r	.	.
24cc-XLL	.	.
24f	.	.
24c-XJJ	.	.
*clefF4	*	*
16D-XLL	4ddn	.
16DD-XJJ	.	.
8r	.	.
=135	=135	=135
*	*^	*
8rD	4raa	4rc	.
24GGLL	.	.	.
24D-X	.	.	.
24c-XJJ	.	.	.
4.e-X	[2ff	[2f [2cc-X	.
8dn	.	.	.
=136	=136	=136	=136
8r	2ff]	2.f] 2.cc-]	.
24GGLL	.	.	.
24D-X	.	.	.
24c-XJJ	.	.	.
4e-X	.	.	.
4f-X	4ff-X	.	.
=137	=137	=137	=137
8r	4raa	4rc	.
24GGLL	.	.	.
24C#X	.	.	.
24BJJ	.	.	.
4.en	[2gg	[2fn [2b	.
8d#X	.	.	.
=138	=138	=138	=138
8r	2gg]	2.f] 2.b]	.
24GGLL	.	.	.
24C#X	.	.	.
24BJJ	.	.	.
4e	.	.	.
4fn	4ff#X	.	.
=139	=139	=139	=139
12r	4raa	4rc	.
12C#XL	.	.	.
12GJ	.	.	.
4.f	[2aa	[2b [2ffn	.
8e	.	.	.
=140	=140	=140	=140
12r	2aa]	2.b] 2.ff]	.
12C#XL	.	.	.
12GJ	.	.	.
4f	.	.	.
4g#X	4gg#X	.	.
=141	=141	=141	=141
16r	[2bb	12rc	.
16C#XLL	.	.	.
.	.	12ffL	.
16Gn	.	.	.
.	.	12bJ	.
16fJJ	.	.	.
*clefG2	*	*	*
4.a	.	4ff	.
.	6bb]	12bL	.
.	.	12ffJ	.
8b-X	.	.	.
.	12bb-X	12rc	.
*clefF4	*	*	*
=142	=142	=142	=142
20r	[2eee--	12rc	.
20GGLL	.	.	.
.	.	12ffL	.
20D-X	.	.	.
20c-X	.	.	.
.	.	12cc-XJ	.
20fJJ	.	.	.
*clefG2	*	*	*
4b-X	.	4ff	.
4b--	12eee--L]	12cc-L	.
.	12ddd-X	12ffJ	.
.	12cccnJ	12rc	.
*clefF4	*	*	*
=143	=143	=143	=143
16r	[2bbn	12rc	.
16C#XLL	.	.	.
.	.	12ffL	.
16G	.	.	.
.	.	12bnJ	.
16fJJ	.	.	.
*clefG2	*	*	*
4.a	.	4ff	.
.	6bb]	12bL	.
.	.	12ffJ	.
8b-X	.	.	.
.	12bb-X	12rc	.
*clefF4	*	*	*
=144	=144	=144	=144
20rA	[2eee--	12rc	.
20GGLL	.	.	.
.	.	12ffL	.
20D-X	.	.	.
20c-X	.	.	.
.	.	12cc-XJ	.
20fJJ	.	.	.
*clefG2	*	*	*
4b-X	.	4ff	.
4b--	6eee--]	12cc-L	.
.	.	12ffJ	.
.	12ddd-X	12rc	.
*clefF4	*	*	*
=145	=145	=145	=145
20rA	[2eee--	12rc	.
20GGLL	.	.	.
.	.	12ffL	.
20D-X	.	.	.
20c-X	.	.	.
.	.	12cc-XJ	.
20fJJ	.	.	.
*clefG2	*	*	*
4b-X	.	4ff	.
4b--	6eee--]	12cc-L	.
.	.	12ffJ	.
.	12ddd-X	12rc	.
*clefF4	*	*	*
=146	=146	=146	=146
20rA	[2eee-X	12rc	.
20GGLL	.	.	.
.	.	12ffL	.
20D-X	.	.	.
20c-X	.	.	.
.	.	12cc-XJ	.
20fJJ	.	.	.
*clefG2	*	*	*
4b-X	.	4ff	.
4b--	6eee-]	12cc-L	.
.	.	12ffJ	.
.	12dddn	12rc	.
*	*v	*v	*
*clefF4	*	*
=147	=147	=147
2.r	2.r	.
=148	=148	=148
*^	*	*
*	*^	*	*
.	16qqGG\LL	[8qGG/	.	.
.	[16qqD-X\JJ	.	.	.
2e-X	2.D-_	2.GG/_	[2.f [2.cc-X [2.ff [2.ccc-X [2.fff	.
4dn	.	.	.	.
=149	=149	=149	=149	=149
2c-X	2.D-]	2.GG/]	2.f] 2.cc-] 2.ff] 2.ccc-] 2.fff]	.
4B-X	.	.	.	.
*	*v	*v	*	*
=150	=150	=150	=150
2A-X	2.GG 2.D-X	2.e-- 2.f 2.b-X 2.ee--	.
4G	.	.	.
*v	*v	*	*
=151	=151	=151
4D-X 4c-X	4e-X 4f 4cc-X 4ee-X	.
8r	8r	.
16qqD-/LL	.	.
16qqc-/	.	.
16qqf/JJ	.	.
*clefG2	*	*
24ee-XLL	8fff	.
24cc-X	.	.
24fJJ	.	.
*clefF4	*	*
16c-LL	8ccc-XL	.
16D-JJ	.	.
8r	8bb-XJ	.
=152	=152	=152
4r	2ee-X	.
8r	.	.
*clefG2	*	*
24cc-XLL	.	.
24f	.	.
24c-XJJ	.	.
*clefF4	*	*
16D-XLL	4ddn	.
16DD-XJJ	.	.
8r	.	.
=153	=153	=153
8r	4r	.
24DD-XLL	.	.
24GG	.	.
24c-XJJ	.	.
4.e-X	[2f [2cc-X [2ff	.
8dn	.	.
=154	=154	=154
8r	2f] 2cc-] 2ff]	.
24DD-XLL	.	.
24GG	.	.
24c-XJJ	.	.
4.e-X	.	.
.	4r	.
8dn	.	.
=155	=155	=155
2.r	2.r	.
=156	=156	=156
*^	*	*
.	16qqD-X\LL	.	.
*	*^	*	*
.	[16qqG\JJ	[8qD-/	.	.
2e-X	2.G]	2.D-\_	[2.f 2.cc-X [2.ff	.
4dn	.	.	.	.
*	*v	*v	*	*
=157	=157	=157	=157
2c-X	2.D-]	2.f] 2.g 2.ff]	.
4B-X	.	.	.
=158	=158	=158	=158
2A-X	2.D-X	2.e-- 2.f 2.b-X 2.ee--	.
4G	.	.	.
=159	=159	=159	=159
2c-X	2.D-X	12e-X 12f 12cc-X 12ee-X	.
.	.	24ee-LL	.
.	.	24ff	.
.	.	24gg	.
.	.	24bb-XJJ	.
.	.	12ccc-XL	.
.	.	12eee-X	.
.	.	12fffJ	.
4B-X	.	12gggL	.
.	.	12bbb-X	.
.	.	24qqeee-/LL	.
.	.	24qqfff/	.
.	.	24qqggg/	.
.	.	24qqbbb-/JJ	.
.	.	12cccc-XJ	.
=160	=160	=160	=160
2A-X	[2.D-X	[2.e-- [2.f [2.b-X [2.ee--	.
4G	.	.	.
=161	=161	=161	=161
2A-X	2.D-]	2.e--] 2.f] 2.b-] 2.ee--]	.
4G	.	.	.
=162	=162	=162	=162
2A-X	2.D-X	2.e-- 2.f 2.b-X 2.ee--	.
4G	.	.	.
=163	=163	=163	=163
12c-X	12D-X	12e-X 12f 12cc-X 12ee-X	.
12rc	12rEE	24e-LL	.
.	.	24f	.
12rc	12rEE	24g	.
.	.	24b-XJJ	.
4rc	4rEE	12cc-L	.
.	.	12ee-	.
.	.	12ffJ	.
4rc	4rEE	12ggL	.
.	.	12bb-X	.
.	.	24qqee-/LL	.
.	.	24qqff/	.
.	.	24qqgg/	.
.	.	24qqbb-/JJ	.
.	.	12ccc-XJ	.
=164	=164	=164	=164
2AA-X	[2.DD-X	[2.F [2.B-X [2.e--	.
4GG	.	.	.
=165	=165	=165	=165
2AA-X	2.DD-]	2.F] 2.B-] 2.e--]	.
4GG	.	.	.
=166	=166	=166	=166
2AA-X	2.DD-X	2.F 2.B-X 2.e--	.
4GG	.	.	.
*v	*v	*	*
=167	=167	=167
12DD-X 12D-X	12c-X 12e-X 12f	.
12r	24e-LL	.
.	24f	.
12r	24g	.
.	24b-XJJ	.
4r	12cc-XL	.
.	12ee-X	.
.	12ffJ	.
4r	12ggL	.
.	12bb-X	.
.	32qqqe-LLL	.
.	32qqqf	.
.	32qqqg	.
.	32qqqb-	.
.	32qqqcc-	.
.	32qqqee-	.
.	32qqqff	.
.	32qqqgg	.
.	32qqqbb-JJJ	.
.	12ccc-XJ	.
=168	=168	=168
2.r	2.e--	.
=169	=169	=169
12DD-X 12D-X	12c-X 12e-X 12f	.
12r	24e-LL	.
.	24f	.
12r	24g	.
.	24b-XJJ	.
4r	12cc-XL	.
.	12ee-X	.
.	12ffJ	.
4r	12ggL	.
.	12bb-X	.
.	32qqqe-LLL	.
.	32qqqf	.
.	32qqqg	.
.	32qqqb-	.
.	32qqqcc-	.
.	32qqqee-	.
.	32qqqff	.
.	32qqqgg	.
.	32qqqbb-JJJ	.
.	12ccc-XJ	.
=170	=170	=170
2.r	[2e--	.
.	8e--L]	.
.	32qqqe-LLL	.
.	32qqqf	.
.	32qqqg	.
.	32qqqb-	.
.	32qqqcc-	.
.	32qqqee-	.
.	32qqqff	.
.	32qqqgg	.
.	32qqqbb-JJJ	.
.	8ccc-XJ	.
=171	=171	=171
2.r	[2.e--	.
=172	=172	=172
2.r	2.e--]	.
==	==	==
*-	*-	*-
!!!system-decoration: {(*)}
!!!ENC: Bryan Jacob Bell
!!!END: November 2021 to April 2022
!!!PED: Günter Philipp
!!!PTL: Ausgewählte Klavierwerke (Edition Peters)
